Hatter-kde/actions/22/vcs-remove-cvs-cervisia.svg

<svg xmlns="http://www.w3.org/2000/svg" viewBox="0 0 22 22">
  <defs id="defs3051">
    <style type="text/css" id="current-color-scheme">
      .ColorScheme-Text {
        color:#363636;
      }
      .ColorScheme-NegativeText {
        color:#da4453;
      }
      </style>
  </defs>
  <path
     style="fill:currentColor;fill-opacity:1;stroke:none" 
     d="M 14.833984,14 14,14.833984 15.666016,16.5 14,18.166016 14.833984,19 16.5,17.333984 18.166016,19 19,18.166016 17.333984,16.5 19,14.833984 18.166016,14 16.5,15.666016 Z"
     class="ColorScheme-NegativeText"  />
  <path
     style="fill:currentColor;fill-opacity:1;stroke:none" 
     d="M 11,3 C 6.5817225,3 3.0000007,4.3431457 3,6 v 10 c 7e-7,1.656854 3.5817225,3 8,3 0.675205,-0.0014 1.347214,-0.03489 2,-0.09961 V 18 17.916016 C 12.351067,17.971511 11.677377,17.999801 11,18 7.1340068,18 4,17.104569 4,16 v -3.548828 c 1.4081159,0.95541 4.08901,1.548587 7,1.548828 2.914295,-0.0014 5.595979,-0.597016 7,-1.554688 V 13 h 1 V 6 C 19,4.3431457 15.418277,3 11,3 Z m 0,1 c 3.865993,0 7,0.8954305 7,2 0,1.1045695 -3.134007,2 -7,2 C 7.1340068,8 4,7.1045695 4,6 4,4.8954305 7.1340068,4 11,4 Z m 7,3.4453125 V 11 c 0,1.104569 -3.134007,2 -7,2 C 7.1340068,13 4,12.104569 4,11 V 7.4511719 C 5.4081159,8.4065815 8.08901,8.9997592 11,9 c 2.914295,-0.00142 5.595979,-0.5970155 7,-1.5546875 z"
     class="ColorScheme-Text" />
</svg>

<?xml version="1.0" encoding="UTF-8"?>
<svg viewBox="0 0 22 22" xmlns="http://www.w3.org/2000/svg">
 <defs id="defs3051">
  <style id="current-color-scheme" type="text/css">.ColorScheme-Text {
        color:#363636;
      }
      .ColorScheme-NegativeText {
        color:#da4453;
      }</style>
 </defs>
 <path class="ColorScheme-NegativeText" d="m14.834 14-0.83398 0.83398 1.666 1.666-1.666 1.666 0.83398 0.83398 1.666-1.666 1.666 1.666 0.83398-0.83398-1.666-1.666 1.666-1.666-0.83398-0.83398-1.666 1.666z" fill="currentColor"/>
 <path class="ColorScheme-Text" d="m11 3c-4.4183 0-8 1.3431-8 3v10c7e-7 1.6569 3.5817 3 8 3 0.6752-0.0014 1.3472-0.03489 2-0.09961v-0.98437c-0.64893 0.055495-1.3226 0.083785-2 0.083984-3.866 0-7-0.89543-7-2v-3.5488c1.4081 0.95541 4.089 1.5486 7 1.5488 2.9143-0.0014 5.596-0.59702 7-1.5547v0.55469h1v-7c0-1.6569-3.5817-3-8-3zm0 1c3.866 0 7 0.89543 7 2s-3.134 2-7 2c-3.866 0-7-0.89543-7-2s3.134-2 7-2zm7 3.4453v3.5547c0 1.1046-3.134 2-7 2-3.866 0-7-0.89543-7-2v-3.5488c1.4081 0.95541 4.089 1.5486 7 1.5488 2.9143-0.00142 5.596-0.59702 7-1.5547z" fill="currentColor"/>
</svg>
